X:9
T:The Keel Row
C:As played by All Star Ceili Band (transcribed by Miklos Nemeth)
M:4/4
L:1/8
Q:1/4=160
K:D
a/g/|:f2d>f g2e>g|f2d>f e>cA2|f2d>f g2e>g|f>de>c d2f/a/z:|fafa  b2a>g|f2e>d f>dA2|fafa  b2a>g|1f2 e2  d2f/a/z:|2 f2 e2  d3z|]
